X: 11505
T: Eddie Kelly's
R: reel
M: 4/4
K: Dminor
B|AGEC D3C|A,DDC A,DFD|DEFE EF2G|Acfe d3c|
AGEC A,3=B,|C3D EGc=B|dfed cGAc|BGFE FDD:|
|:g|fd~d2 d3e|fddf eceg|fddc defd|eg~g2 ecce|
fddc defd|eaaf gedf|edc=B cGAc|BGFE FDD:|

